!!!COM: Britten, (Edward) Benjamin
!!!OTL: String Quartet No. 1 in D Major, op. 25
!!!OMV: III: Andante calmo
!!!example: 805
!!!work: Bri-21
**kern	**dynam	**kern	**dynam	**kern	**dynam	**kern	**dynam
*part4	*part4	*part3	*part3	*part2	*part2	*part1	*part1
*staff4	*	*staff3	*	*staff2	*	*staff1	*
*I"Violoncello	*	*I"Viola	*	*I"Violin II	*	*I"Violin I	*
*I'Vc.	*	*I'Vla.	*	*I'Vln. II	*	*I'Vln. I	*
*clefF4	*	*clefC3	*	*clefG2	*	*clefG2	*
*k[b-e-]	*	*k[b-e-]	*	*k[b-e-]	*	*k[b-e-]	*
*B-:	*	*B-:	*	*B-:	*	*B-:	*
*M5/4	*	*M5/4	*	*M5/4	*	*M5/4	*
*MM121	*	*MM121	*	*MM121	*	*MM121	*
=56	=56	=56	=56	=56	=56	=56	=56
4r	.	4r	.	(8f#XL	.	8aaoL	.
.	.	.	.	8dd	.	8d	.
4En~	p	(4En~	pp	8aao)	.	(8ff#X	.
.	.	.	.	8d	.	8a)	.
4E~	.	4E~	.	(8ff#X	.	(8f#X	.
.	.	.	.	8aJ)	.	8ddJ	.
4E~	.	4E~	.	(8f#L	.	8aaoL)	.
.	.	.	.	8dd	.	8d	.
4E~	.	4E~)	.	8aao)	.	(8ff#	.
.	.	.	.	8dJ	.	8aJ)	.
=57	=57	=57	=57	=57	=57	=57	=57
4r	.	4r	.	(8ff#XL	.	(8f#XL	.
.	.	.	.	8a)	.	8dd	.
4En~	.	(4En~	.	(8f#X	.	8aao)	.
.	.	.	.	8dd	.	8d	.
4E~	.	4E~	.	8aao)	.	(8ff#X	.
.	.	.	.	8dJ	.	8aJ)	.
4E~	.	4E~	.	(8ff#L	.	(8f#L	.
.	.	.	.	8a)	.	8dd	.
4E~	.	4E~)	.	(8f#	.	8aao)	.
.	.	.	.	8ddJ	.	8dJ	.
=58	=58	=58	=58	=58	=58	=58	=58
4r	.	4r	.	8aaoL)	.	(8ff#XL	.
.	.	.	.	8d	.	8a)	.
4En	<	(4En	<	(8ff#X	.	(8f#X	.
.	.	.	.	8a)	.	8dd	.
4.Bn	.	4.Bn	.	(8f#X	.	8aao)	<
.	.	.	.	8ddJ	.	8aJ	.
.	.	.	.	8aaoL)	.	(8dddL	.
4.A	[[	4.A)	[[	8a	.	8ff#)	.
.	.	.	.	(8ff#	.	(8dd	.
.	.	.	.	8dddJ)	.	8aaJ	[[
=59	=59	=59	=59	=59	=59	=59	=59
4G#X	sf	[2.G#X	> sf	8ddL	.	8fff#XL)	f
.	.	.	.	(8fff#X	.	8a	.
4r	.	.	.	8aa)	.	(8ddd	>
.	.	.	.	8a	.	8ff#X)	.
4r	.	.	.	(8ddd	.	(8f#X	.
.	.	.	.	8ff#XJ)	.	8ddJ	.
2r	.	4G#]	.	(8f#XL	.	8aaoL)	.
.	.	.	.	8dd	.	8d	.
.	.	4r	]	8aao)	.	(8ff#X	.
.	.	.	.	8dJ	.	8aJ)	]]
=60	=60	=60	=60	=60	=60	=60	=60
4r	.	4r	.	(8ff#XL	pp	(8f#XL	pp
.	.	.	.	8a)	.	8dd	.
4G#X~	mp	(4G#X~	p	(8f#X	.	8aao)	.
.	.	.	.	8dd	.	8d	.
4G#~	.	4G#~	.	8aao)	.	(8ff#X	.
.	.	.	.	8dJ	.	8aJ)	.
4G#~	.	4G#~	.	(8ff#L	.	(8f#L	.
.	.	.	.	8a)	.	8dd	.
4G#~	.	4G#~)	.	(8f#	.	8aao)	.
.	.	.	.	8ddJ	.	8dJ	.
=61	=61	=61	=61	=61	=61	=61	=61
4r	.	4r	.	8aaoL)	.	(8ff#XL	.
.	.	.	.	8d	.	8a)	.
4Fn~	.	(4Fn~	.	(8ff#X	.	(8f#X	.
.	.	.	.	8a)	.	8dd	.
4F~	.	4F~	.	(8f#X	.	8aao)	.
.	.	.	.	8ddJ	.	8dJ	.
4F~	.	4F~	.	8aaoL)	.	(8ff#XL	.
.	.	.	.	8d	.	8a)	.
4F~	.	4F~)	.	(8ff#	.	(8f#	.
.	.	.	.	8aJ)	.	8ddJ	.
=62	=62	=62	=62	=62	=62	=62	=62
4r	.	4r	.	(8f#XL	.	8aaoL)	.
.	.	.	.	8dd	.	8d	.
4E-X	<	(4E-X	<	8aao)	.	(8ff#X	.
.	.	.	.	8d	.	8a)	.
!	!	!	!	!LO:TX:b:t=cresc.	!	!LO:TX:b:t=cresc.	!
4.E-	.	4.E-	.	(8ff#X	.	(8f#X	.
.	.	.	.	8aJ)	.	8ddJ	.
.	.	.	.	(8dL	.	8aaoL)	.
4.D-X	[[	4.D-X)	[[	8a	.	8d	.
.	.	.	.	8ff#)	.	(8ff#X	.
.	.	.	.	8dJ	.	8aJ)	.
=	=	=	=	=	=	=	=
*-	*-	*-	*-	*-	*-	*-	*-
!!!system-decoration: [(s1,s2,s3,s4)]
!!!CDT: 1913/11/22-1976/12/04
!!!CBL: Lowestoft, England
!!!CDL: Aldeburgh, England
!!!CNT: English
!!!AGN: Instrumental; Chamber
!!!MCN:
!!!MDT: 1941/09/21
!!!MGN: Coolidge String Quartet
!!!MLC: Los Angeles, California, United States of America
!!!MPD: 1941
!!!MPN:
!!!ODT: 1941
!!!PDT: 1942
!!!excerpt-start-measure: 56
!!!excerpt-end-measure: 62
!!!excerpt-start-time: 5:16
!!!excerpt-end-time: 5:45
!!!EEV: 2020/01/27
!!!ONB: Converted from MusicXML on 2020/01/27
